X:139
T:Slide Chaoimh\'in
R:slide
C:Peadar \'O Riada
Z:id:hn-slide-139
M:6/8
L:1/8
K:D
FGF E2D | F3 F2A | BdB A2B | d3 d2A | def d2B |
[1 AFA AFA | BAF A2F | E3 E2D :|2 AFA AFE | DEF E2D | D3 D2F ||
|: A2F A2F | AFE D2F | A2d B2d | BAF E2F |
A2F A2F | AFE D3 | dcB AFE |1 F2E D2F :|2 F2E D2E ||

